X:1
T:Partition sans titre
C:Compositeur / Arrangeur
L:1/8
M:4/4
I:linebreak $
K:G
V:1 treble nm="Violon" snm="Vln."
V:1
 DG |"G" B3 B BAGA | Bcde dBGE |"Dm" DE=FG FEFG | A=FcF"G" dBGA |"G" B3 B BAGA | Bcde dBGE | %7
 DCB,A, G,B,DG | (3BcB AF G2 :: Bd |"G" g3 a bgdB |"C" c2"G" PB2"D" PA2 GA | %12
[M:3/2] FAEA DFAc"G" BBGB |[M:4/4]"G" g3 a bgdB |"C" c2"G" PB2"D" PA2 GA | PF2 PE2 DFAc | %16
"G" BGAF G2 :| %17
